packages/foundations/assets/icons/functional/images/audio & video/fast_forward_30_28.svg

<svg width="28" height="28" viewBox="0 0 28 28" fill="none" xmlns="http://www.w3.org/2000/svg">
<g clip-path="url(#clip0_184_293)">
<path fill-rule="evenodd" clip-rule="evenodd" d="M12.775 13.9384C14.366 13.9384 15.521 14.9574 15.521 16.3604C15.521 17.0634 15.26 17.6104 14.872 18.0374C15.554 18.4994 15.974 19.2694 15.974 20.1944C15.974 23.4154 11.908 23.6114 10.377 23.6844C10.363 23.6864 10.348 23.6864 10.334 23.6864C10.2191 23.6891 10.1048 23.669 9.99763 23.6275C9.89046 23.5859 9.79253 23.5237 9.70942 23.4443C9.62632 23.3649 9.55966 23.2699 9.51326 23.1648C9.46686 23.0596 9.44163 22.9463 9.439 22.8314C9.43637 22.7165 9.45641 22.6022 9.49795 22.4951C9.5395 22.3879 9.60175 22.29 9.68114 22.2069C9.76053 22.1238 9.85552 22.0571 9.96067 22.0107C10.0658 21.9643 10.1791 21.9391 10.294 21.9364C13.757 21.7704 14.224 20.9634 14.224 20.1944C14.224 19.6294 13.885 19.3184 13.269 19.3184L13.174 19.3194L12.991 19.3254C12.718 19.3404 12.424 19.3844 11.816 19.5054C11.5927 19.5453 11.3627 19.4969 11.1745 19.3704C10.9862 19.244 10.8544 19.0494 10.8068 18.8277C10.7592 18.6059 10.7995 18.3744 10.9193 18.1818C11.0392 17.9892 11.2291 17.8507 11.449 17.7954C12.508 17.5484 13.771 17.1014 13.771 16.3604C13.771 15.7374 13.008 15.6884 12.775 15.6884C12.207 15.6884 11.625 15.8464 10.942 16.1824C10.7349 16.2789 10.4982 16.2906 10.2826 16.2149C10.067 16.1392 9.88961 15.9822 9.78826 15.7774C9.68691 15.5726 9.66969 15.3363 9.74028 15.119C9.81086 14.9017 9.96366 14.7206 10.166 14.6144C11.099 14.1524 11.928 13.9384 12.775 13.9384ZM12.717 4.31344C12.943 4.31344 13.168 4.39744 13.337 4.56644L16.1 7.32444C16.27 7.49444 16.354 7.71844 16.354 7.94444C16.354 8.16944 16.269 8.39444 16.1 8.56344L13.338 11.3204C13.2564 11.4014 13.1597 11.4656 13.0533 11.5091C12.9469 11.5527 12.833 11.5749 12.718 11.5744C12.6028 11.5763 12.4884 11.555 12.3815 11.5119C12.2747 11.4687 12.1777 11.4044 12.0961 11.323C12.0146 11.2416 11.9503 11.1446 11.907 11.0378C11.8637 10.931 11.8422 10.8167 11.844 10.7014C11.844 10.4764 11.928 10.2514 12.097 10.0824L13.479 8.70344C9.109 8.50644 5.248 11.9964 5.248 16.5274C5.248 18.4124 5.924 20.2704 7.193 21.7054C7.32373 21.8636 7.3936 22.0633 7.39 22.2684C7.39 22.7754 7.023 23.1684 6.516 23.1684C6.262 23.1684 6.009 23.0564 5.868 22.8594C4.318 21.1144 3.5 18.8634 3.5 16.5554C3.5 11.2084 7.897 6.90244 13.253 6.95844L12.097 5.80544C12.0161 5.72386 11.952 5.62709 11.9086 5.52069C11.8652 5.41429 11.8432 5.30036 11.844 5.18544C11.8424 5.07039 11.8639 4.95619 11.9072 4.8496C11.9505 4.74301 12.0147 4.64619 12.0962 4.56488C12.1776 4.48357 12.2744 4.41942 12.3811 4.37623C12.4877 4.33304 12.602 4.31169 12.717 4.31344ZM21.005 13.9384C23.035 13.9384 24.5 15.2514 24.5 17.4564V20.0164C24.5 22.2514 22.978 23.5344 21.005 23.5634C19.032 23.5914 17.538 22.2504 17.538 20.0734V17.3714C17.538 15.2514 19.088 13.9384 21.005 13.9384ZM21.005 15.6834C19.793 15.6834 19.257 16.2174 19.257 17.3714V20.0734C19.257 21.3394 19.764 21.8464 21.005 21.8464C22.217 21.8464 22.781 21.2554 22.781 20.0164V17.4564C22.781 16.1894 22.273 15.6834 21.005 15.6834Z" fill="#1A1C1F"/>
</g>
<defs>
<clipPath id="clip0_184_293">
<rect width="28" height="28" fill="white"/>
</clipPath>
</defs>
</svg>

<svg xmlns="http://www.w3.org/2000/svg" width="28" height="28" fill="none"><g clip-path="url(#a)"><path fill="#1A1C1F" fill-rule="evenodd" d="M12.775 13.938c1.591 0 2.746 1.02 2.746 2.422 0 .703-.261 1.25-.649 1.677.682.462 1.102 1.232 1.102 2.157 0 3.221-4.066 3.417-5.597 3.49q-.021.003-.043.002a.875.875 0 1 1-.04-1.75c3.463-.166 3.93-.973 3.93-1.742 0-.565-.339-.876-.955-.876l-.095.001-.183.006c-.273.015-.567.06-1.175.18a.874.874 0 0 1-.367-1.71c1.059-.247 2.322-.694 2.322-1.435 0-.623-.763-.672-.996-.672-.568 0-1.15.158-1.833.494a.875.875 0 0 1-.776-1.568c.933-.462 1.762-.676 2.609-.676m-.058-9.625c.226 0 .451.084.62.253L16.1 7.324c.17.17.254.394.254.62s-.085.45-.254.62l-2.762 2.756a.87.87 0 0 1-.62.254.86.86 0 0 1-.874-.873c0-.225.084-.45.253-.619l1.382-1.379c-4.37-.197-8.231 3.293-8.231 7.824 0 1.885.676 3.743 1.945 5.178.13.159.2.358.197.563 0 .507-.367.9-.874.9-.254 0-.507-.112-.648-.309-1.55-1.745-2.368-3.996-2.368-6.304 0-5.347 4.397-9.653 9.753-9.597l-1.156-1.153a.87.87 0 0 1-.253-.62.86.86 0 0 1 .873-.872m8.288 9.625c2.03 0 3.495 1.313 3.495 3.518v2.56c0 2.235-1.522 3.518-3.495 3.547-1.973.028-3.467-1.313-3.467-3.49v-2.702c0-2.12 1.55-3.433 3.467-3.433m0 1.745c-1.212 0-1.748.534-1.748 1.688v2.702c0 1.266.507 1.773 1.748 1.773 1.212 0 1.776-.59 1.776-1.83v-2.56c0-1.267-.508-1.773-1.776-1.773" clip-rule="evenodd"/></g><defs><clipPath id="a"><path fill="#fff" d="M0 0h28v28H0z"/></clipPath></defs></svg>
